Obsidian-SemiLight/actions/24s/office-chart-line-percentage.svg

<svg viewBox="0 0 24 24" xmlns="http://www.w3.org/2000/svg"><path d="m4 4v3.9921875 1.0078125 7 1 1h-1v1h1v1h1v-1h14v-1h-14v-1h.0078125.9921875 2v-.007812l.0078125.007812 1.9999995-2h1.591797l2 2h3.5 1.900391v-1h-1.900391-3.085937l-2-2h-.013672-.992188-.408203-1.005859l-2 2h-1.59375-.9921875-.0078125v-3-1-1-2h.0078125.9921875 1.5878906l1.7070313 1.707031.8281251.828125 2 2 .001953-.001953.001953.001953 2.126953-2.125 1.296875 1.296875.828125.828125 1.041016 1.041016.707031-.707031-1.041015-1.041016-.828126-.828125-2-2-.003906.003906-.005859-.003906-2.123047 2.123047-1.294922-1.294922-.828125-.828125-1.9999999-2h-.0019531-2v-.0078125h-1v-.9921875h7v-1h-7v-2zm8 0v1h1v3h1v-4h-1zm4.5 0c-.831 0-1.5.669-1.5 1.5v1c0 .831.669 1.5 1.5 1.5s1.5-.669 1.5-1.5v-1c0-.831-.669-1.5-1.5-1.5zm4 0c-.831 0-1.5.669-1.5 1.5v1c0 .831.669 1.5 1.5 1.5s1.5-.669 1.5-1.5v-1c0-.831-.669-1.5-1.5-1.5zm-4 1c.277 0 .5.223.5.5v1c0 .277-.223.5-.5.5s-.5-.223-.5-.5v-1c0-.277.223-.5.5-.5zm4 0c.277 0 .5.223.5.5v1c0 .277-.223.5-.5.5s-.5-.223-.5-.5v-1c0-.277.223-.5.5-.5z" fill="#4d4d4d"/></svg>

<svg xmlns="http://www.w3.org/2000/svg" viewBox="0 0 24 24">
  <defs id="defs3051">
    <style type="text/css" id="current-color-scheme">
      .ColorScheme-Text {
        color:#4d4d4d;
      }
      </style>
  </defs>
 <path style="fill:currentColor;fill-opacity:1;stroke:none" 
     d="M 4 4 L 4 7.9921875 L 4 9 L 4 16 L 4 17 L 4 18 L 3 18 L 3 19 L 4 19 L 4 20 L 5 20 L 5 19 L 19 19 L 19 18 L 5 18 L 5 17 L 5.0078125 17 L 6 17 L 8 17 L 8 16.992188 L 8.0078125 17 L 10.007812 15 L 11.599609 15 L 13.599609 17 L 17.099609 17 L 19 17 L 19 16 L 17.099609 16 L 14.013672 16 L 12.013672 14 L 12 14 L 11.007812 14 L 10.599609 14 L 9.59375 14 L 7.59375 16 L 6 16 L 5.0078125 16 L 5 16 L 5 13 L 5 12 L 5 11 L 5 9 L 5.0078125 9 L 6 9 L 7.5878906 9 L 9.2949219 10.707031 L 10.123047 11.535156 L 12.123047 13.535156 L 12.125 13.533203 L 12.126953 13.535156 L 14.253906 11.410156 L 15.550781 12.707031 L 16.378906 13.535156 L 17.419922 14.576172 L 18.126953 13.869141 L 17.085938 12.828125 L 16.257812 12 L 14.257812 10 L 14.253906 10.003906 L 14.248047 10 L 12.125 12.123047 L 10.830078 10.828125 L 10.001953 10 L 8.0019531 8 L 8 8 L 6 8 L 6 7.9921875 L 5 7.9921875 L 5 7 L 12 7 L 12 6 L 5 6 L 5 4 L 4 4 z M 12 4 L 12 5 L 13 5 L 13 8 L 14 8 L 14 4 L 13 4 L 12 4 z M 16.5 4 C 15.669 4 15 4.669 15 5.5 L 15 6.5 C 15 7.331 15.669 8 16.5 8 C 17.331 8 18 7.331 18 6.5 L 18 5.5 C 18 4.669 17.331 4 16.5 4 z M 20.5 4 C 19.669 4 19 4.669 19 5.5 L 19 6.5 C 19 7.331 19.669 8 20.5 8 C 21.331 8 22 7.331 22 6.5 L 22 5.5 C 22 4.669 21.331 4 20.5 4 z M 16.5 5 C 16.777 5 17 5.223 17 5.5 L 17 6.5 C 17 6.777 16.777 7 16.5 7 C 16.223 7 16 6.777 16 6.5 L 16 5.5 C 16 5.223 16.223 5 16.5 5 z M 20.5 5 C 20.777 5 21 5.223 21 5.5 L 21 6.5 C 21 6.777 20.777 7 20.5 7 C 20.223 7 20 6.777 20 6.5 L 20 5.5 C 20 5.223 20.223 5 20.5 5 z "
     class="ColorScheme-Text"
     />
</svg>
